X:1
T:Title
%%score { ( 1 4 ) | ( 2 3 ) }
L:1/8
M:4/4
K:Eb
V:1 treble nm="Grand Piano"
V:4 treble 
V:2 bass 
V:3 bass 
V:1
 z4 z2[Q:1/4=104] EF | G2 GG GFGA | [EGB]6 [B,EG][EGB] | c2 cc cedc | [EGB]6 [B,EG][B,EG] | %5
 [B,DG][A,DF][G,_D=E][A,=DF] [DB]2 [DA][DF] | FEDE B2 B[GB] | BFce d2 c2 |[M:3/4] [DB]6[K:bass] | %9
[M:1/4][K:treble] cd |[M:4/4] [Ge][Ge][Gd][Gc] [Ae][Ad][DA][DB] | %11
 [Ad][Ad][DAc][DAd] [EGc][EGB][B,EG][B,EG] | [DB]2 [DF]2 [EG]2 [FA]2 | G6 z2 | cc=Bc e2 dc | %15
[M:9/8] [EGB]EG B [Ge]2- [Ge][C_Gd][EGc] |[M:4/4] [EGB][EGc][EGB][EGc] [B,EG]2 [A,DF]2 | %17
[M:3/4] [G,E]6 |] %18
V:2
 z4 z2 [E,G,][E,A,E] | [E,B,E]2 [E,B,E][E,B,E] [E,B,E][A,B,D][G,B,E][F,B,F] | E,4 z4 | %3
 [A,EA]2 [A,EA][A,EA] [A,EA][A,CA][A,CA][A,EA] | E,4 z4 | B,,B,,B,,B,, [B,,F,]2 [B,,F,][B,,A,] | %6
 [E,A,B,][E,G,B,][E,F,B,][E,G,B,] [E,G,E]2 [E,G,E][E,B,] | %7
 [F,DF][F,B,D][F,=A,F][F,CF] [F,B,F]2 [F,A,E]2 |[M:3/4] B,4 z2 |[M:1/4][K:treble] [B,A][B,A] | %10
[M:4/4][K:bass] [E,B,][E,B,][E,B,][E,B,] [F,B,][F,B,][F,B,][F,B,] | [B,,B,][B,,B,]B,,B,, E,E,E,E, | %12
 [B,,B,]2 [B,,B,]2 [B,,B,]2 [B,,B,]2 | [E,B,E][E,B,][E,B,][E,B,] [E,B,]2 [E,E][E,E] | %14
 [A,EA][A,EA][A,DA][A,EA] [A,CA]2 [A,CA][A,EA] |[M:9/8][K:bass] E,E,G, B, [C,C]2- [C,C]=A,,A,, | %16
[M:4/4] B,,B,,B,,B,, B,,2 B,,2 |[M:3/4] E,6 |] %18
V:3
 x8 | x8 | z E,,G,,B,, E,2 E,E, | x8 | z E,,G,,B,, E,2 E,E, | x8 | x8 | x8 |[M:3/4] B,,6 | %9
[M:1/4][K:treble] x2 |[M:4/4][K:bass] x8 | x8 | x8 | x8 | x8 |[M:9/8][K:bass] x9 |[M:4/4] x8 | %17
[M:3/4] x6 |] %18
V:4
 x8 | x8 | x8 | x8 | x8 | x8 | x8 | x8 |[M:3/4] z[K:bass] C, D,F, B,2 |[M:1/4][K:treble] x2 | %10
[M:4/4] x8 | x8 | x8 | z EEE E2 [GB][GB] | x8 |[M:9/8] x9 |[M:4/4] x8 |[M:3/4] x6 |] %18

